X: 10241
T: MY NANNIE O
Q: "Slow"
%R: air, march
B: "Edinburgh Repository of Music" v.1 p.24 #1
F: http://digital.nls.uk/special-collections-of-printed-music/pageturner.cfm?id=87776133
Z: 2015 John Chambers <jc:trillian.mit.edu>
M: C
L: 1/8
K: Em
G>A |\
B2E2 B3A | G2TFE E2D>E |\
G3A BABd | e2A>B A2GA |\
B2d2 cBAG |
A2B2 g3f |\
e>ged BAB^d | e2E>F E2 :|\
|: B>c |\
d3e {e}d2cB | g2d>e {e}d2g>f |
e>^def g>fga | b2e>f {f}e2d>c |\
B2g2 d<BAG | A2B2 Hg3f |\
e>ged BAB^d | e2E>F E2 :|

%%sep 2 1 500
%%sep 1 1 500

